assets/icons/MAIL ICON.svg

<svg xmlns="http://www.w3.org/2000/svg" height="48" width="48"><path d="M7 40q-1.2 0-2.1-.9Q4 38.2 4 37V11q0-1.2.9-2.1Q5.8 8 7 8h34q1.2 0 2.1.9.9.9.9 2.1v26q0 1.2-.9 2.1-.9.9-2.1.9Zm17-15.1 17-11.15V11L24 21.9 7 11v2.75Z"/></svg>

<svg width="48" height="48" viewBox="0 0 48 48" fill="none" xmlns="http://www.w3.org/2000/svg">
<path d="M7 40C6.2 40 5.5 39.7 4.9 39.1C4.3 38.5 4 37.8 4 37V11C4 10.2 4.3 9.5 4.9 8.9C5.5 8.3 6.2 8 7 8H41C41.8 8 42.5 8.3 43.1 8.9C43.7 9.5 44 10.2 44 11V37C44 37.8 43.7 38.5 43.1 39.1C42.5 39.7 41.8 40 41 40H7ZM24 24.9L41 13.75V11L24 21.9L7 11V13.75L24 24.9Z" fill="#F9FBFE"/>
</svg>
